X:1
T:Julia Delaney
M:4/4
L:1/8
R:reel
K:Ddor
dcAG F2DF | E2CE F2Ac | dcAG F2DF | Eddc d4 |
dcAG F2DF | E2CE F2Ac | dcAG F2DF |1 Eddc d4 :|2 Eddc d2 |: 
de | f2fe fagf | (3edc gc acge | fede fagf | edcA Adde |
f2fe fagf | (3edc gc acge | fedf edcA |1 Addc d2 :|2 Addc d4 |]
